symbols/web/desktop_mac/materialsymbolsoutlined/desktop_mac_wght100grad200_40px.svg

<svg xmlns="http://www.w3.org/2000/svg" height="40" width="40"><path d="M15.292 32.042V30.75l3.25-3.292H7.667q-1.292 0-2.167-.875-.875-.875-.875-2.166V8.708q0-1.25.875-2.145.875-.896 2.167-.896h24.666q1.292 0 2.167.896.875.895.875 2.145v15.709q0 1.291-.875 2.166t-2.167.875H21.458l3.25 3.292v1.292Zm-8.959-8.917h27.334V8.708q0-.5-.417-.916-.417-.417-.917-.417H7.667q-.5 0-.917.417-.417.416-.417.916Zm0 0V7.375v15.75Z"/></svg>

<svg xmlns="http://www.w3.org/2000/svg" height="40" width="40"><path d="M15.292 32.042V30.75L18.542 27.458H7.667Q6.375 27.458 5.5 26.583Q4.625 25.708 4.625 24.417V8.708Q4.625 7.458 5.5 6.563Q6.375 5.667 7.667 5.667H32.333Q33.625 5.667 34.5 6.563Q35.375 7.458 35.375 8.708V24.417Q35.375 25.708 34.5 26.583Q33.625 27.458 32.333 27.458H21.458L24.708 30.75V32.042ZM6.333 23.125H33.667V8.708Q33.667 8.208 33.25 7.792Q32.833 7.375 32.333 7.375H7.667Q7.167 7.375 6.75 7.792Q6.333 8.208 6.333 8.708ZM6.333 23.125V8.708Q6.333 8.125 6.333 7.75Q6.333 7.375 6.333 7.375Q6.333 7.375 6.333 7.75Q6.333 8.125 6.333 8.708V23.125Z"/></svg>
